images/landing_triangle_outline.svg

<svg width="32" height="32" viewBox="0 0 32 32" fill="none" xmlns="http://www.w3.org/2000/svg">
<path d="M21.1738 5.20335C21.6471 5.01718 22.0123 5.2572 22.1184 5.35936C22.2245 5.46152 22.5427 5.768 22.4436 6.2866L19.5877 22.7103C19.4886 23.2289 19.1124 23.4249 18.9684 23.4815C18.8038 23.5463 18.398 23.658 18.0238 23.3255L5.73523 12.8594C5.34046 12.5351 5.37201 12.091 5.40997 11.9322C5.44792 11.7734 5.556 11.3472 6.02927 11.161L21.1738 5.20335ZM20.8781 4.36041L5.73357 10.318C4.39608 10.8442 4.09046 12.6431 5.16289 13.5642L17.4515 24.0303C17.9877 24.4909 18.688 24.5511 19.2641 24.3245C19.8403 24.0978 20.3335 23.5681 20.4557 22.8485L23.3117 6.42476C23.5635 5.00669 22.2156 3.83426 20.8781 4.36041Z" fill="#FDBC5A"/>
</svg>

<svg xmlns="http://www.w3.org/2000/svg" width="32" height="32" fill="none"  xmlns:v="https://vecta.io/nano"><path d="M21.174 5.203c.473-.186.838.054.945.156s.424.41.325.927L19.588 22.7a1.01 1.01 0 0 1-.619.771c-.165.065-.57.177-.945-.156L5.735 12.86c-.395-.324-.363-.768-.325-.927s.146-.585.62-.77l15.145-5.958zm-.296-.843L5.734 10.318c-1.337.526-1.643 2.325-.57 3.246l12.29 10.466c.536.46 1.236.52 1.813.294a1.93 1.93 0 0 0 1.192-1.476l2.856-16.424c.252-1.418-1.096-2.6-2.434-2.064z" fill="#fdbc5a"/></svg>
